X: 20233
T: The NEW RIGGED SHIP
O: Country dance.
%R: jig
B: W. Hamilton "Universal Tune-Book" Vol. 2 Glasgow 1846 p.23 #3
S: http://s3-eu-west-1.amazonaws.com/itma.dl.printmaterial/book_pdfs/hamiltonvol2web.pdf
Z: 2016 John Chambers <jc:trillian.mit.edu>
M: 6/8
L: 1/8
K: C
%%stretchstaff 0
% - - - - - - - - - - - - - - - - - - - - - - - - -
G |\
c2c c2e | c2c c2e | dBG GBc | dBG GAB |\
c2c c2e | c2c c2G | ABc dcB | c3 c2 :|\
|: e/f/ |\
g2e g2e | cBc cfg | a2f a2f | dcd def |
g2e g2e | cdc BAG | ABc dcB | c3 c2 (e/f/) |\
gfe gfe | cdc cfg | agf a2f | ded def |\
gfe gfe | cdc BAG | ABc dBG | c3 c2 |]
% - - - - - - - - - - - - - - - - - - - - - - - - -

%%sep 1 1 500
%%sep 1 1 500

